X:1
T:My Mother Is Praying for Me
T:My Mother Is Praying for Me
T:Joseph Hulse Weber
T:May Agnes Osgood, ca. 1903
T:Public Domain Courtesy of the Cyber Hymnal™
T:Public Domain Courtesy of the Cyber Hymnal™
C:Joseph Hulse Weber
Z:Public Domain
Z:Courtesy of the Cyber Hymnal™
%%score ( 1 2 ) ( 3 4 )
L:1/8
Q:1/4=80
M:6/8
K:Ab
V:1 treble 
V:2 treble 
V:3 bass 
V:4 bass 
V:1
"^Solo" E | [Ec]>[DB][Ec] [EA]<[EA][EA] | [FB]>[FA][FA] [FA]2 [CE] | E<[EA][EA] [EA]>[EB][Ec] | %4
w: 1.~I|knelt by my mo- ther, her|hand on my head, And|ut- tered my prayer at her|
w: 2.~In|dark- ness and sin I have|wan- dered a- way, Nor|tried from temp- ta- tion to|
w: 3.~I’m|wea- ry of sin- ning; I|turn to the cross, And|its light shin- ing o’er me|
 [EB]3- [EB]2 E | [Ec]2 [DB]/[Ec]/ [EA]2 [EA]/[EA]/ | [FB][DF][DF] [=DB]2 [DA]/[DA]/ | %7
w: knee; * Now|far, far a- way from her|side I have strayed But my|
w: flee; * But|down in my heart I could|ne- ver for- get That my|
w: I~see; * I’ll|go to my Sav- ior and|thank Him a- gain, That a|
 [EA]<!fermata![EG]F [EG]!fermata![Ec]>[DB] | [CA]3- [CA]2 ||"^Refrain" E | %10
w: mo- ther is pray- ing for|me. *||
w: mo- ther was pray- ing for|me. *|My|
w: mo- ther was pray- ing for|me. *||
 [Ec]>[DB][Ec] [EA]<[EA][DB] | c3 [CE]2 [CA] | [Ec]>[DB][Ec] [EA]<[EG][EA] | B3- [EB]2 E x | %14
w: ||||
w: mo- ther is pray- ing for|me, My mo-|* ther is pray- ing for|me, For sure-|
w: ||||
 [Ec]>[DB][Ec] [FA]2 [EA]/[EA]/ | [FB]<[DF][DF] !fermata![=DB]2 [DA] | %16
w: ||
w: ly I know that wher- ev-|er I go, My mo-|
w: ||
 [EA]<!fermata![EG]F [EG]!fermata![Ec]>[DB] | A3- [CA]2 |] %18
w: ||
w: ther is pray- ing for me.||
w: ||
V:2
 E | x6 | x6 | E/ x11/2 | x5 E | x6 | x6 | x2 F x3 | x5 || E | x6 | C2 C x3 | x6 | (E2 E E) x3 | %14
 x6 | x6 | x2 F x3 | C2 D x2 |] %18
V:3
 E, | [A,,A,]>[A,,A,][A,,A,] [A,,C]<[A,,C][C,A,] | [D,A,]>[D,A,][D,A,] [D,A,]2 [D,A,] | %3
 [C,A,]<[C,A,][C,A,] [C,A,]>[C,G,][A,,A,] | [E,G,]3- [E,G,]2 E, | %5
 [A,,A,]2 [A,,A,]/[A,,A,]/ [C,A,]2 [C,A,]/[C,A,]/ | [D,A,][D,A,][D,A,] [B,,B,]2 [B,,B,]/[B,,B,]/ | %7
 [E,C]<!fermata![E,B,][E,A,] [E,B,]!fermata![E,G,]>[E,G,] | [A,,A,]3- [A,,A,]2 || E, | %10
 [A,,A,]>[A,,A,][A,,A,] [C,A,]<[C,A,][E,G,] | (A,2 A, [A,,A,]2) [A,,A,] | %12
 [A,,A,]>[A,,A,][A,,A,] [C,A,]<[C,A,][C,A,] | G,3 (G, [E,G,]2) E, | %14
 [A,,A,]>[A,,A,][A,,A,] [C,A,]2 [C,A,]/[C,A,]/ | [D,A,]<[D,A,][D,A,] !fermata![B,,B,]2 [B,,B,] | %16
 [E,C]<!fermata![E,B,][E,A,] [E,B,][E,G,]>[E,G,] | (A,2 F, [A,,E,]2) |] %18
V:4
 E, | x6 | x6 | x6 | x5 E, | x6 | x6 | x6 | x5 || E, | x6 | A,,3- x3 | x6 | (E,2- E,) x4 | x6 | %15
 x6 | x6 | A,,3- x2 |] %18

